packages/foundations/assets/icons/functional/images/editing/pen_24.svg

<svg width="24" height="24" viewBox="0 0 24 24" fill="none" xmlns="http://www.w3.org/2000/svg">
<g clip-path="url(#clip0_83_264)">
<path fill-rule="evenodd" clip-rule="evenodd" d="M17.4679 2.00802C17.7486 2.00462 18.0269 2.05916 18.2855 2.16826C18.5441 2.27735 18.7775 2.43863 18.9709 2.64202L21.2719 4.92002C21.7179 5.39002 21.9999 5.97702 21.9999 6.61002C21.9999 7.17402 21.7889 7.76102 21.2719 8.27802L9.5309 20.042C9.2489 20.324 8.8969 20.582 8.5679 20.63L3.2609 21.968C3.1909 21.992 3.1209 21.992 3.0259 21.992C2.8936 21.9936 2.76247 21.9672 2.64112 21.9144C2.51978 21.8617 2.41099 21.7838 2.3219 21.686C2.1099 21.475 1.9459 21.17 2.0169 20.888L2.0399 20.77L3.3079 15.651C3.4019 15.252 3.5899 14.9 3.8479 14.618L15.7299 2.73602C16.1906 2.27369 16.8152 2.01204 17.4679 2.00802ZM5.3979 15.839L5.3279 15.909C5.3039 15.933 5.2809 16.027 5.2579 16.121L4.3879 19.596L7.8169 18.774C7.9016 18.7637 7.9822 18.7316 8.0509 18.681L8.1449 18.587L5.3979 15.839ZM14.4149 6.89202L6.8539 14.454L9.5539 17.178L17.1389 9.59302L14.4149 6.89302V6.89202ZM17.3969 4.05102C17.3039 4.05102 17.2099 4.07402 17.1389 4.16802L15.8239 5.48302L18.5719 8.23102L19.8869 6.89202C19.9184 6.86209 19.9431 6.82566 19.9591 6.78525C19.9752 6.74485 19.9823 6.70144 19.9799 6.65802C19.9741 6.54188 19.924 6.43238 19.8399 6.35202L17.6559 4.16802C17.5859 4.07402 17.4909 4.05102 17.3969 4.05102Z" fill="#1A1C1F"/>
</g>
<defs>
<clipPath id="clip0_83_264">
<rect width="24" height="24" fill="white"/>
</clipPath>
</defs>
</svg>

<svg xmlns="http://www.w3.org/2000/svg" width="24" height="24" fill="none"><g clip-path="url(#a)"><path fill="#1A1C1F" fill-rule="evenodd" d="M17.468 2.008a2.04 2.04 0 0 1 1.503.634l2.3 2.278c.447.47.729 1.057.729 1.69 0 .564-.211 1.151-.728 1.668L9.53 20.042c-.282.282-.634.54-.963.588L3.26 21.968c-.07.024-.14.024-.235.024a.94.94 0 0 1-.704-.306c-.212-.211-.376-.516-.305-.798l.023-.118 1.268-5.119c.094-.399.282-.751.54-1.033L15.73 2.736a2.48 2.48 0 0 1 1.738-.728M5.398 15.839l-.07.07c-.024.024-.047.118-.07.212l-.87 3.475 3.429-.822a.5.5 0 0 0 .234-.093l.094-.094zm9.017-8.947-7.561 7.562 2.7 2.724 7.585-7.585-2.724-2.7zm2.982-2.841c-.093 0-.187.023-.258.117l-1.315 1.315 2.748 2.748 1.315-1.339a.3.3 0 0 0 .093-.234.46.46 0 0 0-.14-.306l-2.184-2.184c-.07-.094-.165-.117-.26-.117" clip-rule="evenodd"/></g><defs><clipPath id="a"><path fill="#fff" d="M0 0h24v24H0z"/></clipPath></defs></svg>
